react/assets/icons/sign-language.svg

<svg width="48px" height="48px" viewBox="0 0 24 24" xmlns="http://www.w3.org/2000/svg" aria-labelledby="signLanguageIconTitle" stroke-linecap="square" stroke-linejoin="miter" fill="none"> <title id="signLanguageIconTitle">Sign language</title> <path d="M10.5448 12.322C10.146 11.597 9.37496 11.1058 8.48913 11.1058C8.08034 11.1058 7.69598 11.2104 7.36137 11.3943M10.5448 14.5785C10.146 15.3035 9.37496 15.7948 8.48913 15.7948C7.89771 15.7948 7.35743 15.5758 6.94497 15.2145M6.94497 15.2145C6.45441 14.7847 6.14464 14.1537 6.14464 13.4503C6.14464 12.5642 6.63614 11.793 7.36137 11.3943M6.94497 15.2145H6.01642C5.7512 15.2145 5.49685 15.3198 5.30931 15.5073L4.713 16.1037C4.32248 16.4942 3.68931 16.4942 3.29879 16.1037L1.8763 14.6812C1.48577 14.2906 1.48577 13.6575 1.8763 13.267L2.69073 12.4525C2.74044 12.4028 2.78477 12.348 2.82298 12.289L4.88949 9.09806M4.88949 9.09806C5.06401 7.75419 6.14464 5.85853 7.67909 5.23022M4.88949 9.09806L7.36137 11.3943M5.79064 9.93519C6.20402 9.01629 8.56918 7.0872 9.82578 7.11513M6.55557 10.6458C7.3526 9.7382 9.55701 8.91974 11.414 9.43634"/> <path d="M13.4552 12.9087C13.854 13.6337 14.625 14.1249 15.5109 14.1249C15.9197 14.1249 16.304 14.0203 16.6386 13.8364M13.4552 10.6522C13.854 9.92722 14.625 9.43595 15.5109 9.43595C16.1023 9.43595 16.6426 9.65494 17.055 10.0163M17.055 10.0163C17.5456 10.446 17.8554 11.077 17.8554 11.7804C17.8554 12.6665 17.3639 13.4377 16.6386 13.8364M17.055 10.0163L17.9836 10.0163C18.2488 10.0163 18.5032 9.9109 18.6907 9.72336L19.287 9.12705C19.6775 8.73653 20.3107 8.73653 20.7012 9.12705L22.1237 10.5495C22.5142 10.9401 22.5142 11.5732 22.1237 11.9638L21.3093 12.7782C21.2596 12.8279 21.2152 12.8827 21.177 12.9417L19.1105 16.1327M19.1105 16.1327C18.936 17.4765 17.8554 19.3722 16.3209 20.0005M19.1105 16.1327L16.6386 13.8364M18.2094 15.2955C17.796 16.2144 15.4308 18.1435 14.1742 18.1156M17.4444 14.5849C16.6474 15.4925 14.443 16.311 12.586 15.7944"/> </svg>

<svg width="48" height="48" viewBox="0 0 24 24" xmlns="http://www.w3.org/2000/svg" aria-labelledby="signLanguageIconTitle" stroke-linecap="square" fill="none"><path d="M10.545 12.322a2.344 2.344 0 00-3.184-.928m3.184 3.184a2.344 2.344 0 01-3.6.636m0 0a2.344 2.344 0 01.416-3.82m-.416 3.82h-.929a1 1 0 00-.707.293l-.596.597a1 1 0 01-1.414 0L1.876 14.68a1 1 0 010-1.414l.815-.814a1 1 0 00.132-.164l2.066-3.19m0 0c.175-1.345 1.256-3.24 2.79-3.869M4.89 9.098l2.472 2.296m-1.57-1.459c.413-.919 2.778-2.848 4.035-2.82m-3.27 3.53c.797-.907 3.001-1.725 4.858-1.209M13.455 12.909a2.344 2.344 0 003.184.927m-3.184-3.184a2.344 2.344 0 013.6-.636m0 0a2.344 2.344 0 01-.416 3.82m.416-3.82h.929a1 1 0 00.707-.293l.596-.596a1 1 0 011.414 0l1.423 1.422a1 1 0 010 1.415l-.815.814a1 1 0 00-.132.164l-2.067 3.19m0 0c-.174 1.345-1.255 3.24-2.79 3.868m2.79-3.867l-2.471-2.297m1.57 1.46c-.413.918-2.778 2.848-4.035 2.82m3.27-3.531c-.797.907-3.001 1.726-4.858 1.21"/></svg>
